X:1
T:Mighty to Save
T:Mighty to Save
T:J. H. Meredith
T:H. T. Zuley, 1896
T:Public Domain Courtesy of the Cyber Hymnal™
T:Public Domain Courtesy of the Cyber Hymnal™
C:J. H. Meredith
Z:Public Domain
Z:Courtesy of the Cyber Hymnal™
%%score ( 1 2 ) ( 3 4 )
L:1/8
Q:1/4=108
M:4/4
K:Bb
V:1 treble 
V:2 treble 
V:3 bass 
V:4 bass 
V:1
 F2 | [DB]2 [FB]2 [Fc]2 [Fc]2 | z x12 | [Fe]4 [FB]2 [Fd]2 | [Fc]6 F2 x5 | [DB]2 [FB]2 [Fc]2 [Fc]2 | %6
w: 1.~All|hail, Thou Son of||God, Migh- ty|to save;|Whose feet this earth|
w: 2.~Thou|art the Con- quer-||or, Migh- ty|to save;|Whose name all shall|
w: 3.~We|praise Thee for Thy||grace, Migh- ty|to save;|And glad- ly seek|
 [Fd]6 z2 x4 | [Gc]4 [FB]2 [EA]2 | [DB]6 [DF]2 | [DB]2 [DB]2 [DB]2 [FA]2 | [EG]6 [EG]2 | %11
w: have|trod, Migh- ty|to save;|We come to sing|Thy praise,|
w: a-|dore, Migh- ty|to save;|Thou who to earth|didst come,|
w: Thy|face, Migh- ty|to save;|For Thou hast saved|from sin,|
 [Ec]2 [Ec]2 [Ec]2 [GB]2 | [FA]6 [FA]2 | [FB]2 [FB]2 [Fc]2 [Fd]2 | ([Ge]6 (3[Cc]{e'}[Dd][Ee]) | %15
w: Whose good- ness crowns|our days,|To Thee our an-|thems * * *|
w: And sin and death|o’er- come,|Our Sav- ior hast|be- * * *|
w: And made us pure|with- in,|So we a crown|may * * *|
 [Ff]4 [Fd]3 [Ec] | ([DB]6 (3[DF]{c'}[DB][Ec]) ||"^Refrain" [Fd]4 [FB]3 [FA] | %18
w: raise, Migh- ty|to * * *|save. Migh- ty|
w: come, Migh- ty|to * * *|save. * *|
w: win, Migh- ty|to * * *|save. * *|
 ([EG]6 (3[G=B][Gc][Gd]) | [Ge]4 [Gc]3 [GB] | [FA]6 F2 | [DB]2 [FB]2 [Fc]2 [Fd]2 | %22
w: to * * *|save, migh- ty|to save,|To Thee our an-|
w: ||||
w: ||||
 ([Ge]6 (3[Cc]{e'}[Dd][Ee]) | [Ff]4 [Fd]3 [Ec] | [DB]6 |] %25
w: thems * * *|raise, Migh- ty|to|
w: |||
w: |||
V:2
 F2 | x8 | d6 F=EFGFDB, | x8 | x6 F2 x5 | x8 | x12 | x8 | x8 | x8 | x8 | x8 | x8 | x8 | x8 | x8 | %16
 x8 || x8 | x8 | x8 | x6 (FE) | x8 | x8 | x8 | x6 |] %25
V:3
 F,2 | [B,,B,]2 [D,B,]2 [F,A,]2 [F,A,]2 | B,6 z2 x5 | A,4 [D,B,]2 [B,,B,]2 | (z z) D, x10 | %5
w: ~|~ ~ ~ ~|~|~ ~ ~|~|
 [B,,B,]2 [D,B,]2 [F,A,]2 [F,A,]2 | z2 x10 | (B,2 E2) [F,D]2 [F,C]2 | [B,,B,]6 [B,,B,]2 | %9
w: ~ ~ ~ ~||~ * ~ ~|~ ~|
 [B,,F,]2 [B,,F,]2 [B,,F,]2 [D,B,]2 | [E,B,]6 [E,B,]2 | [C,C]2 [C,G,]2 [C,G,]2 [=E,C]2 | %12
w: ~ ~ ~ ~|~ ~|~ ~ ~ ~|
 [F,C]6 [E,C]2 | [D,B,]2 [D,B,]2 [F,A,]2 B,2 | ([E,B,]6 (3C,D,E,) | [F,D]4 [F,B,]3 [F,A,] | %16
w: ~ ~|~ ~ ~ ~|~ * * *|~ ~ ~|
 [B,,B,]6 z2 || [B,,B,]4 [D,B,]4 | [E,B,]2 [E,B,]>[E,B,] ([E,B,]2 (3F,E,D,) | [C,C]4 C4 | %20
w: ~|~ ~|~ Migh- ty, migh- * * *|ty to|
 [F,C]2 [F,C]>[F,C] C2 ([D,B,][C,A,]) | [B,,B,]2 [D,B,]2 [F,A,]2 B,2 | ([E,B,]6 (3C,D,E,) | %23
w: save, Migh- ty, migh- ty *|to save, * *||
 [F,D]4 [F,B,]3 [F,A,] | [B,,B,]6 |] %25
w: ||
V:4
 F,2 | x8 | B,6 x7 | (F,2 E,2) x4 | ([F,A,]6 G,A,G,F,E,) F,2 | x8 | B,6 F,2 D,2 B,,2 | E,4 x4 | %8
 x8 | x8 | x8 | x8 | x8 | x6 B,2 | x8 | x8 | x8 || x8 | x8 | x4 (E,2 =E,2) | x4 (F,E,) x2 | %21
 x6 B,2 | x8 | x8 | x6 |] %25

